Yaru++/actions/symbolic/edit-paste-symbolic.svg

<svg height="16" width="16" xmlns="http://www.w3.org/2000/svg">
  <path d="m7 0c-1.099 0-2 .902-2 2h-1v.025c-.75.019-1.41.071-1.938.362a1.878 1.878 0 0 0 -.84.996c-.164.438-.222.96-.222 1.617v7c0 .658.058 1.179.223 1.617.164.439.463.79.84.998.527.291 1.182.342 1.937.36v1.025h10v-11h-1c0-.658-.06-1.179-.225-1.617a1.875 1.875 0 0 0 -.837-.996c-.527-.291-1.189-.343-1.938-.362v-.025h-1c0-1.098-.901-2-2-2zm0 1c.558 0 1 .442 1 1a.99.99 0 0 1 -1 1 .982.982 0 0 1 -.922-.61 1.007 1.007 0 0 1 -.078-.39c0-.558.442-1 1-1zm-3 2.04v.96h6v-.96c.666.031 1.204.084 1.453.222.184.1.29.212.387.472s.16.674.16 1.266h-8v8.96c-.672-.03-1.204-.084-1.453-.222-.184-.1-.29-.212-.387-.472s-.16-.674-.16-1.266v-7c0-.592.063-1.006.16-1.266.098-.26.202-.371.385-.472.249-.138.788-.191 1.455-.223zm1 2.96h8v9h-8zm1.008 1v1h6.012v-1zm0 2v1h6.012v-1zm-.008 2v1h3v-1z" fill="#808080"/>
</svg>

<svg height="16" width="16" xmlns="http://www.w3.org/2000/svg">
    <path d="M7 0C5.901 0 5 .902 5 2H4v.025c-.75.019-1.41.071-1.938.362a1.878 1.878 0 0 0-.84.996C1.058 3.821 1 4.343 1 5v7c0 .658.058 1.179.223 1.617.164.439.463.79.84.998.527.291 1.182.342 1.937.36V16h10V5h-1c0-.658-.06-1.179-.225-1.617a1.875 1.875 0 0 0-.837-.996c-.527-.291-1.189-.343-1.938-.362V2H9c0-1.098-.901-2-2-2zm0 1c.558 0 1 .442 1 1a.99.99 0 0 1-1 1 .982.982 0 0 1-.922-.61A1.007 1.007 0 0 1 6 2c0-.558.442-1 1-1zM4 3.04V4h6v-.96c.666.031 1.204.084 1.453.222.184.1.29.212.387.472.097.26.16.674.16 1.266H4v8.96c-.672-.03-1.204-.084-1.453-.222-.184-.1-.29-.212-.387-.472C2.063 13.006 2 12.592 2 12V5c0-.592.063-1.006.16-1.266.098-.26.202-.371.385-.472.249-.138.788-.191 1.455-.223zM5 6h8v9H5zm1.008 1v1h6.012V7zm0 2v1h6.012V9zM6 11v1h3v-1z" fill="gray" font-family="sans-serif" font-weight="400" overflow="visible" style="line-height:normal;text-indent:0;text-align:start;text-decoration-line:none;text-decoration-style:solid;text-decoration-color:#000;text-transform:none;isolation:auto;mix-blend-mode:normal;marker:none" white-space="normal" color="#000"/>
</svg>
